X:1
T:Sing unto God
T:William James Kirkpatrick
T:Sing unto God
T:Public Domain
T:Public Domain
T:Public Domain
T:Public Domain
C:William James Kirkpatrick
Z:Public Domain
%%score ( 1 2 ) ( 3 4 )
L:1/8
M:4/4
K:D
V:1 treble 
V:2 treble 
V:3 bass 
V:4 bass 
V:1
 [FA]2 [DF]>[EG] [FA]2 [Fd]2 | [Ge]>[Gd] [Gc]>[GB] [FA]2 [DF]2 | [EA]2 [CE]>[DF] [EG]2 [FA]2 | %3
w: 1.~Sing un- to God, our|hope and our de- liv’- rer;|He is the Lord, the|
w: 2.~Sing un- to God, for|He a- lone is wor- thy,|Sing un- to God, for|
w: 3.~Sing un- to God, ye|ran- somed ones in glo- ry,|Ye who have reached the|
 [Gc]>[GB] [FA]>[EG] [DF]4 | [FA]2 [DF]>[EG] [FA]2 [Fd]2 | [Ge]>[Gd] [Gc]>[GB] [FA]2 [DF]2 | %6
w: might- y theme pro- long;|Pour out your hearts in|mu- sic’s sweet- est num- bers,|
w: He a- lone is king;|Come, O ye lands, and|trust- ing His sal- va- tion,|
w: shin- ing realms of peace,|Ye who are safe with-|in the bless- èd king- dom,|
 [Fd]2 [Fd]>[Fd] [Fd]>[DB] [FA]>[EG] | [DF]2 [CE]2 D4 ||[K:A] (C2 C>C C2) A>B | (E2 E>E E2) c2 | %10
w: Pour out your hearts in mel- o-|dy and song.|ye * * * the gates,|love- * * * ly|
w: Sing un- to God, in grate- ful|chor- us sing.|is * * * the Lord,|won- * * * der-|
w: Safe in that land where praise shall|ne- ver cease.|un- * * * to God,|an- * * * gels|
 (F2 F>F [Fd]>)[Fd] [Ec]>[EB] | (E>E E>E E2) [CA]2 | (E2 E>E E2) c>^d | (G2 G>G G2) G2 | %14
w: of * * * Zi- on, Now|His * * * * courts|ho- * * * ly *|ture * * * ring;|
w: His * * * mer- cy, Strong|His * * * * love,|bid- * * * ing *|er- * * * more.|
w: be- * * * hold Him, Sing|ye * * * * fly|do * * * your *|ereign’s * * * will,|
 (^D2 D>D B>)B F>F | (E>B, B,>B, B,2) z2 | (C2 C>C C2) A>B | (E2 E>E E2) c2 | %18
w: wake * * * a- gain, the|of * * * *|dah; * * * Break forth|hills, * * * and|
w: un- * * * to God, and|of * * * *|ness, * * * Break from|hearts, * * * and|
w: un- * * * to God, let|er * * * *|ing, * * * Earth and|sky * * * with|
 (F2 F>F [Fd]>)[Fd] [Ec]>[EB] | (E>E E>E E2) [EA]2 | (=G2 G>G G2) B>c | (F2 F>F F2) f2 | %22
w: the * * * de- sert sing.||||
w: from * * * shore to shore.||||
w: and * * * glad- ness fill.||||
 (G2 G>G e>)e B>c x2 | (E>E EE E2) z2 |] %24
w: ||
w: ||
w: ||
V:2
 x8 | x8 | x8 | x8 | x8 | x8 | x8 | x4 D4 ||[K:A] E6 x2 | c6 x2 | d4- x4 | c6 x2 | B6 x2 | e6 x2 | %14
w: |||||||Seek|the|gates|let|with|rap-|Wake,|
w: |||||||Great|and|ful|is|a-|ev-|Sing|
w: |||||||Sing|ye|that|as|to|sov-|Sing|
 B4- ^D2 D2 | E6 x2 | E6 x2 | c6 x2 | d6- x2 | c6 x2 | A6 x2 | d6 x2 | e6 G2 G2 | A6 x2 |] %24
w: si- lent harp|Ju-|ye|let|||||||
w: let the voice|glad-|our|spread|||||||
w: an- thems ev-|roll-|the|joy|||||||
V:3
 [D,D]2 [D,A,]>[D,A,] [D,D]2 [D,A,]2 | [G,B,]>[G,B,] [G,C]>[G,D] [D,D]2 [D,A,]2 | %2
 [A,,C]2 [A,,A,]>[A,,A,] [A,,A,]2 [A,,A,]2 | [A,,A,]>[A,,A,] [A,,A,]>[A,,A,] [D,A,]4 | %4
 [D,D]2 [D,A,]>[D,A,] [D,D]2 [D,A,]2 | [G,B,]>[G,B,] [G,C]>[G,D] [D,D]2 [D,A,]2 | %6
 [D,A,]2 [D,A,]>[D,A,] [D,A,]>[G,B,] [F,D]>[G,B,] | A,2 [A,,G,]2 [D,F,]4 || %8
[K:A] ([A,,A,]2 [A,,A,]>[A,,A,] [A,,A,]2) z2 | ([A,,A,]2 [A,,A,]>[A,,A,] [A,,A,]2) z2 | %10
 ([D,A,]2 [D,A,]>[D,A,] [D,A,]>)[D,A,] [E,A,]>[E,G,] | %11
 ([A,,A,]>[A,,A,] [A,,A,]>[A,,A,] [A,,A,]2) [A,,E,]2 | ([E,G,]2 [E,G,]>[E,G,] [E,G,]2) z2 | %13
 ([E,B,]2 [E,B,]>[E,B,] [E,B,]2) z2 | ([B,,F,]2 [B,,F,]>[B,,F,] [B,,F,]2) [B,,A,]2 | %15
 ([E,G,]>[E,G,] [E,G,]>[E,G,] E,>D, C,>B,,) | ([A,,A,]2 [A,,A,]>[A,,A,] [A,,A,]2) z2 | %17
 ([A,,A,]2 [A,,A,]>[A,,A,] [A,,A,]2) z2 | ([D,A,]2 [D,A,]>[D,A,] [D,A,]>)[D,A,] [E,A,]>[E,G,] | %19
 ([A,,A,]>[A,,A,] [A,,A,]>[A,,A,] [A,,A,]2) [A,,C]2 | ([C,E]2 [C,E]>[C,E] [C,E]2) z2 | %21
 ([D,A,]2 [D,A,]>[D,A,] [D,A,]2) z2 | ([E,B,]2 [E,B,]>[E,B,] [E,B,]2) [E,D]2 x2 | %23
 ([A,,C]>[A,,C] [C,C][E,C] A,G,F,E,) |] %24
V:4
 x8 | x8 | x8 | x8 | x8 | x8 | x8 | A,2 x6 ||[K:A] x8 | x8 | x8 | x8 | x8 | x8 | x8 | x4 G,2 x2 | %16
 x8 | x8 | x8 | x8 | x8 | x8 | x10 | x4 C2 x2 |] %24

